X:269
T:Britches Full of Stitches
S:Derek Hoy
Z:Nigel Gatherer
M:2/4
L:1/8
K:Em
A>B cA|BA cA|A>B cA|BA F2|
A>B cA|BA ce|A>B AF|FE E2:|
e>f ec|BA Bc|e>f ec|BA F2|
e>f ec|BA Bc|A>B AF|FE E2:|
<end>
<start>
